; HEADER_BLOCK_START
; generated 2025-06-21 18:45:25
; grid 4x3 squares  z:-0.3→0.0
; filament_diameter: 1.75
; max_z_height: 1.00
; HEADER_BLOCK_END

; EXECUTABLE_BLOCK_START
G90
G21
M83
G9111 bedTemp=60 extruderTemp=215
M190 S60
M109 S215
G28
G1 Z5 F3000
G1 X5 Y5 F6000
G1 Z0.3 F600
G1 E2 F120
G92 E0
;--- Square 1  Z=-0.300 ---
M117 Z -0.30
G1 Z-0.100 F600
G1 X77.500 Y90.000 F9000
G1 X97.500 Y90.000 E0.665 F1200
G1 X97.500 Y110.000 E0.665 F1200
G1 X77.500 Y110.000 E0.665 F1200
G1 X77.500 Y90.000 E0.665 F1200
G92 E0
G1 Z0.100 F600
G1 X77.500 Y90.000 F9000
G1 X97.500 Y90.000 E0.665 F1200
G1 X97.500 Y110.000 E0.665 F1200
G1 X77.500 Y110.000 E0.665 F1200
G1 X77.500 Y90.000 E0.665 F1200
G92 E0
G1 Z0.300 F600
G1 X77.500 Y90.000 F9000
G1 X97.500 Y90.000 E0.665 F1200
G1 X97.500 Y110.000 E0.665 F1200
G1 X77.500 Y110.000 E0.665 F1200
G1 X77.500 Y90.000 E0.665 F1200
G92 E0
G1 Z0.500 F600
G1 X77.500 Y90.000 F9000
G1 X97.500 Y90.000 E0.665 F1200
G1 X97.500 Y110.000 E0.665 F1200
G1 X77.500 Y110.000 E0.665 F1200
G1 X77.500 Y90.000 E0.665 F1200
G92 E0
G1 Z0.700 F600
G1 X77.500 Y90.000 F9000
G1 X97.500 Y90.000 E0.665 F1200
G1 X97.500 Y110.000 E0.665 F1200
G1 X77.500 Y110.000 E0.665 F1200
G1 X77.500 Y90.000 E0.665 F1200
G92 E0
;--- Square 2  Z=-0.273 ---
M117 Z -0.27
G1 Z-0.073 F600
G1 X102.500 Y90.000 F9000
G1 X122.500 Y90.000 E0.665 F1200
G1 X122.500 Y110.000 E0.665 F1200
G1 X102.500 Y110.000 E0.665 F1200
G1 X102.500 Y90.000 E0.665 F1200
G92 E0
G1 Z0.127 F600
G1 X102.500 Y90.000 F9000
G1 X122.500 Y90.000 E0.665 F1200
G1 X122.500 Y110.000 E0.665 F1200
G1 X102.500 Y110.000 E0.665 F1200
G1 X102.500 Y90.000 E0.665 F1200
G92 E0
G1 Z0.327 F600
G1 X102.500 Y90.000 F9000
G1 X122.500 Y90.000 E0.665 F1200
G1 X122.500 Y110.000 E0.665 F1200
G1 X102.500 Y110.000 E0.665 F1200
G1 X102.500 Y90.000 E0.665 F1200
G92 E0
G1 Z0.527 F600
G1 X102.500 Y90.000 F9000
G1 X122.500 Y90.000 E0.665 F1200
G1 X122.500 Y110.000 E0.665 F1200
G1 X102.500 Y110.000 E0.665 F1200
G1 X102.500 Y90.000 E0.665 F1200
G92 E0
G1 Z0.727 F600
G1 X102.500 Y90.000 F9000
G1 X122.500 Y90.000 E0.665 F1200
G1 X122.500 Y110.000 E0.665 F1200
G1 X102.500 Y110.000 E0.665 F1200
G1 X102.500 Y90.000 E0.665 F1200
G92 E0
;--- Square 3  Z=-0.245 ---
M117 Z -0.24
G1 Z-0.045 F600
G1 X127.500 Y90.000 F9000
G1 X147.500 Y90.000 E0.665 F1200
G1 X147.500 Y110.000 E0.665 F1200
G1 X127.500 Y110.000 E0.665 F1200
G1 X127.500 Y90.000 E0.665 F1200
G92 E0
G1 Z0.155 F600
G1 X127.500 Y90.000 F9000
G1 X147.500 Y90.000 E0.665 F1200
G1 X147.500 Y110.000 E0.665 F1200
G1 X127.500 Y110.000 E0.665 F1200
G1 X127.500 Y90.000 E0.665 F1200
G92 E0
G1 Z0.355 F600
G1 X127.500 Y90.000 F9000
G1 X147.500 Y90.000 E0.665 F1200
G1 X147.500 Y110.000 E0.665 F1200
G1 X127.500 Y110.000 E0.665 F1200
G1 X127.500 Y90.000 E0.665 F1200
G92 E0
G1 Z0.555 F600
G1 X127.500 Y90.000 F9000
G1 X147.500 Y90.000 E0.665 F1200
G1 X147.500 Y110.000 E0.665 F1200
G1 X127.500 Y110.000 E0.665 F1200
G1 X127.500 Y90.000 E0.665 F1200
G92 E0
G1 Z0.755 F600
G1 X127.500 Y90.000 F9000
G1 X147.500 Y90.000 E0.665 F1200
G1 X147.500 Y110.000 E0.665 F1200
G1 X127.500 Y110.000 E0.665 F1200
G1 X127.500 Y90.000 E0.665 F1200
G92 E0
;--- Square 4  Z=-0.218 ---
M117 Z -0.22
G1 Z-0.018 F600
G1 X152.500 Y90.000 F9000
G1 X172.500 Y90.000 E0.665 F1200
G1 X172.500 Y110.000 E0.665 F1200
G1 X152.500 Y110.000 E0.665 F1200
G1 X152.500 Y90.000 E0.665 F1200
G92 E0
G1 Z0.182 F600
G1 X152.500 Y90.000 F9000
G1 X172.500 Y90.000 E0.665 F1200
G1 X172.500 Y110.000 E0.665 F1200
G1 X152.500 Y110.000 E0.665 F1200
G1 X152.500 Y90.000 E0.665 F1200
G92 E0
G1 Z0.382 F600
G1 X152.500 Y90.000 F9000
G1 X172.500 Y90.000 E0.665 F1200
G1 X172.500 Y110.000 E0.665 F1200
G1 X152.500 Y110.000 E0.665 F1200
G1 X152.500 Y90.000 E0.665 F1200
G92 E0
G1 Z0.582 F600
G1 X152.500 Y90.000 F9000
G1 X172.500 Y90.000 E0.665 F1200
G1 X172.500 Y110.000 E0.665 F1200
G1 X152.500 Y110.000 E0.665 F1200
G1 X152.500 Y90.000 E0.665 F1200
G92 E0
G1 Z0.782 F600
G1 X152.500 Y90.000 F9000
G1 X172.500 Y90.000 E0.665 F1200
G1 X172.500 Y110.000 E0.665 F1200
G1 X152.500 Y110.000 E0.665 F1200
G1 X152.500 Y90.000 E0.665 F1200
G92 E0
;--- Square 5  Z=-0.191 ---
M117 Z -0.19
G1 Z0.009 F600
G1 X77.500 Y115.000 F9000
G1 X97.500 Y115.000 E0.665 F1200
G1 X97.500 Y135.000 E0.665 F1200
G1 X77.500 Y135.000 E0.665 F1200
G1 X77.500 Y115.000 E0.665 F1200
G92 E0
G1 Z0.209 F600
G1 X77.500 Y115.000 F9000
G1 X97.500 Y115.000 E0.665 F1200
G1 X97.500 Y135.000 E0.665 F1200
G1 X77.500 Y135.000 E0.665 F1200
G1 X77.500 Y115.000 E0.665 F1200
G92 E0
G1 Z0.409 F600
G1 X77.500 Y115.000 F9000
G1 X97.500 Y115.000 E0.665 F1200
G1 X97.500 Y135.000 E0.665 F1200
G1 X77.500 Y135.000 E0.665 F1200
G1 X77.500 Y115.000 E0.665 F1200
G92 E0
G1 Z0.609 F600
G1 X77.500 Y115.000 F9000
G1 X97.500 Y115.000 E0.665 F1200
G1 X97.500 Y135.000 E0.665 F1200
G1 X77.500 Y135.000 E0.665 F1200
G1 X77.500 Y115.000 E0.665 F1200
G92 E0
G1 Z0.809 F600
G1 X77.500 Y115.000 F9000
G1 X97.500 Y115.000 E0.665 F1200
G1 X97.500 Y135.000 E0.665 F1200
G1 X77.500 Y135.000 E0.665 F1200
G1 X77.500 Y115.000 E0.665 F1200
G92 E0
;--- Square 6  Z=-0.164 ---
M117 Z -0.16
G1 Z0.036 F600
G1 X102.500 Y115.000 F9000
G1 X122.500 Y115.000 E0.665 F1200
G1 X122.500 Y135.000 E0.665 F1200
G1 X102.500 Y135.000 E0.665 F1200
G1 X102.500 Y115.000 E0.665 F1200
G92 E0
G1 Z0.236 F600
G1 X102.500 Y115.000 F9000
G1 X122.500 Y115.000 E0.665 F1200
G1 X122.500 Y135.000 E0.665 F1200
G1 X102.500 Y135.000 E0.665 F1200
G1 X102.500 Y115.000 E0.665 F1200
G92 E0
G1 Z0.436 F600
G1 X102.500 Y115.000 F9000
G1 X122.500 Y115.000 E0.665 F1200
G1 X122.500 Y135.000 E0.665 F1200
G1 X102.500 Y135.000 E0.665 F1200
G1 X102.500 Y115.000 E0.665 F1200
G92 E0
G1 Z0.636 F600
G1 X102.500 Y115.000 F9000
G1 X122.500 Y115.000 E0.665 F1200
G1 X122.500 Y135.000 E0.665 F1200
G1 X102.500 Y135.000 E0.665 F1200
G1 X102.500 Y115.000 E0.665 F1200
G92 E0
G1 Z0.836 F600
G1 X102.500 Y115.000 F9000
G1 X122.500 Y115.000 E0.665 F1200
G1 X122.500 Y135.000 E0.665 F1200
G1 X102.500 Y135.000 E0.665 F1200
G1 X102.500 Y115.000 E0.665 F1200
G92 E0
;--- Square 7  Z=-0.136 ---
M117 Z -0.14
G1 Z0.064 F600
G1 X127.500 Y115.000 F9000
G1 X147.500 Y115.000 E0.665 F1200
G1 X147.500 Y135.000 E0.665 F1200
G1 X127.500 Y135.000 E0.665 F1200
G1 X127.500 Y115.000 E0.665 F1200
G92 E0
G1 Z0.264 F600
G1 X127.500 Y115.000 F9000
G1 X147.500 Y115.000 E0.665 F1200
G1 X147.500 Y135.000 E0.665 F1200
G1 X127.500 Y135.000 E0.665 F1200
G1 X127.500 Y115.000 E0.665 F1200
G92 E0
G1 Z0.464 F600
G1 X127.500 Y115.000 F9000
G1 X147.500 Y115.000 E0.665 F1200
G1 X147.500 Y135.000 E0.665 F1200
G1 X127.500 Y135.000 E0.665 F1200
G1 X127.500 Y115.000 E0.665 F1200
G92 E0
G1 Z0.664 F600
G1 X127.500 Y115.000 F9000
G1 X147.500 Y115.000 E0.665 F1200
G1 X147.500 Y135.000 E0.665 F1200
G1 X127.500 Y135.000 E0.665 F1200
G1 X127.500 Y115.000 E0.665 F1200
G92 E0
G1 Z0.864 F600
G1 X127.500 Y115.000 F9000
G1 X147.500 Y115.000 E0.665 F1200
G1 X147.500 Y135.000 E0.665 F1200
G1 X127.500 Y135.000 E0.665 F1200
G1 X127.500 Y115.000 E0.665 F1200
G92 E0
;--- Square 8  Z=-0.109 ---
M117 Z -0.11
G1 Z0.091 F600
G1 X152.500 Y115.000 F9000
G1 X172.500 Y115.000 E0.665 F1200
G1 X172.500 Y135.000 E0.665 F1200
G1 X152.500 Y135.000 E0.665 F1200
G1 X152.500 Y115.000 E0.665 F1200
G92 E0
G1 Z0.291 F600
G1 X152.500 Y115.000 F9000
G1 X172.500 Y115.000 E0.665 F1200
G1 X172.500 Y135.000 E0.665 F1200
G1 X152.500 Y135.000 E0.665 F1200
G1 X152.500 Y115.000 E0.665 F1200
G92 E0
G1 Z0.491 F600
G1 X152.500 Y115.000 F9000
G1 X172.500 Y115.000 E0.665 F1200
G1 X172.500 Y135.000 E0.665 F1200
G1 X152.500 Y135.000 E0.665 F1200
G1 X152.500 Y115.000 E0.665 F1200
G92 E0
G1 Z0.691 F600
G1 X152.500 Y115.000 F9000
G1 X172.500 Y115.000 E0.665 F1200
G1 X172.500 Y135.000 E0.665 F1200
G1 X152.500 Y135.000 E0.665 F1200
G1 X152.500 Y115.000 E0.665 F1200
G92 E0
G1 Z0.891 F600
G1 X152.500 Y115.000 F9000
G1 X172.500 Y115.000 E0.665 F1200
G1 X172.500 Y135.000 E0.665 F1200
G1 X152.500 Y135.000 E0.665 F1200
G1 X152.500 Y115.000 E0.665 F1200
G92 E0
;--- Square 9  Z=-0.082 ---
M117 Z -0.08
G1 Z0.118 F600
G1 X77.500 Y140.000 F9000
G1 X97.500 Y140.000 E0.665 F1200
G1 X97.500 Y160.000 E0.665 F1200
G1 X77.500 Y160.000 E0.665 F1200
G1 X77.500 Y140.000 E0.665 F1200
G92 E0
G1 Z0.318 F600
G1 X77.500 Y140.000 F9000
G1 X97.500 Y140.000 E0.665 F1200
G1 X97.500 Y160.000 E0.665 F1200
G1 X77.500 Y160.000 E0.665 F1200
G1 X77.500 Y140.000 E0.665 F1200
G92 E0
G1 Z0.518 F600
G1 X77.500 Y140.000 F9000
G1 X97.500 Y140.000 E0.665 F1200
G1 X97.500 Y160.000 E0.665 F1200
G1 X77.500 Y160.000 E0.665 F1200
G1 X77.500 Y140.000 E0.665 F1200
G92 E0
G1 Z0.718 F600
G1 X77.500 Y140.000 F9000
G1 X97.500 Y140.000 E0.665 F1200
G1 X97.500 Y160.000 E0.665 F1200
G1 X77.500 Y160.000 E0.665 F1200
G1 X77.500 Y140.000 E0.665 F1200
G92 E0
G1 Z0.918 F600
G1 X77.500 Y140.000 F9000
G1 X97.500 Y140.000 E0.665 F1200
G1 X97.500 Y160.000 E0.665 F1200
G1 X77.500 Y160.000 E0.665 F1200
G1 X77.500 Y140.000 E0.665 F1200
G92 E0
;--- Square 10  Z=-0.055 ---
M117 Z -0.06
G1 Z0.145 F600
G1 X102.500 Y140.000 F9000
G1 X122.500 Y140.000 E0.665 F1200
G1 X122.500 Y160.000 E0.665 F1200
G1 X102.500 Y160.000 E0.665 F1200
G1 X102.500 Y140.000 E0.665 F1200
G92 E0
G1 Z0.345 F600
G1 X102.500 Y140.000 F9000
G1 X122.500 Y140.000 E0.665 F1200
G1 X122.500 Y160.000 E0.665 F1200
G1 X102.500 Y160.000 E0.665 F1200
G1 X102.500 Y140.000 E0.665 F1200
G92 E0
G1 Z0.545 F600
G1 X102.500 Y140.000 F9000
G1 X122.500 Y140.000 E0.665 F1200
G1 X122.500 Y160.000 E0.665 F1200
G1 X102.500 Y160.000 E0.665 F1200
G1 X102.500 Y140.000 E0.665 F1200
G92 E0
G1 Z0.745 F600
G1 X102.500 Y140.000 F9000
G1 X122.500 Y140.000 E0.665 F1200
G1 X122.500 Y160.000 E0.665 F1200
G1 X102.500 Y160.000 E0.665 F1200
G1 X102.500 Y140.000 E0.665 F1200
G92 E0
G1 Z0.945 F600
G1 X102.500 Y140.000 F9000
G1 X122.500 Y140.000 E0.665 F1200
G1 X122.500 Y160.000 E0.665 F1200
G1 X102.500 Y160.000 E0.665 F1200
G1 X102.500 Y140.000 E0.665 F1200
G92 E0
;--- Square 11  Z=-0.027 ---
M117 Z -0.03
G1 Z0.173 F600
G1 X127.500 Y140.000 F9000
G1 X147.500 Y140.000 E0.665 F1200
G1 X147.500 Y160.000 E0.665 F1200
G1 X127.500 Y160.000 E0.665 F1200
G1 X127.500 Y140.000 E0.665 F1200
G92 E0
G1 Z0.373 F600
G1 X127.500 Y140.000 F9000
G1 X147.500 Y140.000 E0.665 F1200
G1 X147.500 Y160.000 E0.665 F1200
G1 X127.500 Y160.000 E0.665 F1200
G1 X127.500 Y140.000 E0.665 F1200
G92 E0
G1 Z0.573 F600
G1 X127.500 Y140.000 F9000
G1 X147.500 Y140.000 E0.665 F1200
G1 X147.500 Y160.000 E0.665 F1200
G1 X127.500 Y160.000 E0.665 F1200
G1 X127.500 Y140.000 E0.665 F1200
G92 E0
G1 Z0.773 F600
G1 X127.500 Y140.000 F9000
G1 X147.500 Y140.000 E0.665 F1200
G1 X147.500 Y160.000 E0.665 F1200
G1 X127.500 Y160.000 E0.665 F1200
G1 X127.500 Y140.000 E0.665 F1200
G92 E0
G1 Z0.973 F600
G1 X127.500 Y140.000 F9000
G1 X147.500 Y140.000 E0.665 F1200
G1 X147.500 Y160.000 E0.665 F1200
G1 X127.500 Y160.000 E0.665 F1200
G1 X127.500 Y140.000 E0.665 F1200
G92 E0
;--- Square 12  Z=+0.000 ---
M117 Z +0.00
G1 Z0.200 F600
G1 X152.500 Y140.000 F9000
G1 X172.500 Y140.000 E0.665 F1200
G1 X172.500 Y160.000 E0.665 F1200
G1 X152.500 Y160.000 E0.665 F1200
G1 X152.500 Y140.000 E0.665 F1200
G92 E0
G1 Z0.400 F600
G1 X152.500 Y140.000 F9000
G1 X172.500 Y140.000 E0.665 F1200
G1 X172.500 Y160.000 E0.665 F1200
G1 X152.500 Y160.000 E0.665 F1200
G1 X152.500 Y140.000 E0.665 F1200
G92 E0
G1 Z0.600 F600
G1 X152.500 Y140.000 F9000
G1 X172.500 Y140.000 E0.665 F1200
G1 X172.500 Y160.000 E0.665 F1200
G1 X152.500 Y160.000 E0.665 F1200
G1 X152.500 Y140.000 E0.665 F1200
G92 E0
G1 Z0.800 F600
G1 X152.500 Y140.000 F9000
G1 X172.500 Y140.000 E0.665 F1200
G1 X172.500 Y160.000 E0.665 F1200
G1 X152.500 Y160.000 E0.665 F1200
G1 X152.500 Y140.000 E0.665 F1200
G92 E0
G1 Z1.000 F600
G1 X152.500 Y140.000 F9000
G1 X172.500 Y140.000 E0.665 F1200
G1 X172.500 Y160.000 E0.665 F1200
G1 X152.500 Y160.000 E0.665 F1200
G1 X152.500 Y140.000 E0.665 F1200
G92 E0
G1 Z20 F900
G92 E0
G1 E-2 F3000
G1 F12000
G1 X44
G1 Y270
M140 S0
M104 S0
M106 P1 S0
M106 P2 S0
M106 P3 S0
M84
; EXECUTABLE_BLOCK_END